X:108
T:Sean Ryan's Reel                                                                                  
M:4/4                                                                                               
L:1/8                                                                                               
K:Em                                                                                                
BEED EDB,A,|(3DED FE DA, A,2|B,EED EFGA|(3Bcd ec dBAc|                                              
BEED EDB,A,| (3DED FE DA, A,2|B,EED EFGA|(3Bcd AF GE  E2:|                                          
g2 eg bgeg|fd d2 Adfd|g2 eg bgeg| fgaf geef|g2 ga bgeg|                                             
g2 df afdf|g2 fa bgaf|1 gfed Bdef:|2 gfed Bcdc|>|
